<?xml version="1.0" encoding="UTF-8"?>
<map version="1.10" tiledversion="1.12.2" orientation="orthogonal" renderorder="right-down" width="30" height="20" tilewidth="16" tileheight="16" infinite="0" nextlayerid="4" nextobjectid="1">
 <tileset firstgid="1" source="Dungeon_Tileset.tsx"/>
 <tileset firstgid="101" source="Combined3.tsx"/>
 <tileset firstgid="213" source="TilesetHole.tsx"/>
 <tileset firstgid="268" source="TilesetElement.tsx"/>
 <tileset firstgid="508" source="TilesetHouse.tsx"/>
 <tileset firstgid="1267" source="TilesetReliefDetail.tsx"/>
 <layer id="1" name="floor" width="30" height="20">
  <data encoding="csv">
79,79,79,79,79,79,79,79,79,79,79,79,79,79,79,79,79,79,79,79,79,79,79,79,79,79,79,79,79,79,
79,79,79,79,79,79,79,79,79,79,79,79,79,79,79,79,79,79,79,79,79,79,79,79,79,79,79,79,79,79,
79,79,79,79,79,79,79,79,79,79,79,79,79,79,79,79,79,79,79,79,79,79,79,79,79,79,79,79,79,79,
79,79,79,79,79,79,79,79,79,79,79,79,79,79,79,79,79,79,79,79,79,79,79,79,79,79,79,79,79,79,
79,79,79,79,79,79,79,79,79,79,79,79,79,79,79,79,79,79,79,79,79,215,79,79,79,79,79,79,79,79,
79,79,79,79,79,79,79,79,79,79,79,79,79,79,79,79,79,79,79,79,230,230,79,79,79,79,79,79,79,79,
79,79,79,79,79,79,79,79,79,79,79,79,79,79,79,79,79,79,79,79,79,79,79,79,79,79,79,79,79,79,
79,79,79,79,79,79,79,79,79,79,79,79,79,79,79,79,79,79,79,79,79,79,79,79,79,79,79,79,79,79,
79,79,79,79,79,79,79,79,79,79,79,79,79,79,79,79,79,79,79,79,79,79,79,79,79,79,79,79,79,79,
79,79,79,79,79,79,79,79,79,79,79,79,79,79,79,79,79,79,79,79,79,79,79,79,79,79,79,79,79,79,
79,79,79,79,79,79,79,79,79,79,79,79,79,79,79,79,79,79,79,79,79,79,79,79,79,79,79,79,79,79,
79,79,79,79,79,79,79,79,79,79,79,79,79,79,79,24,24,79,79,79,79,79,79,79,79,79,79,79,79,79,
79,79,79,79,79,79,79,79,79,79,79,79,79,79,79,79,79,79,79,79,79,79,79,79,79,79,79,79,79,79,
79,79,79,79,79,79,79,79,79,79,79,79,79,79,79,79,79,79,79,79,79,79,79,79,79,79,79,79,79,79,
79,79,79,79,79,79,79,79,79,79,79,79,79,79,79,79,79,79,79,79,79,79,79,79,79,79,79,79,79,79,
79,79,79,79,79,79,79,79,79,79,79,79,79,79,79,79,79,79,79,79,79,79,79,79,79,79,79,79,79,79,
79,79,79,79,79,79,79,79,79,79,79,79,79,79,79,79,79,79,79,79,79,79,79,79,79,79,79,79,79,79,
79,79,79,79,79,79,79,79,79,79,79,79,79,79,79,79,79,79,79,79,79,79,79,79,79,79,79,79,79,79,
79,79,79,79,79,79,79,79,79,79,79,79,79,79,79,79,79,79,79,79,79,79,79,79,79,79,79,79,79,79,
79,79,79,79,79,79,79,79,79,79,79,79,79,79,79,79,79,79,79,79,79,79,79,79,79,79,79,79,79,79
</data>
 </layer>
 <layer id="2" name="floor2" width="30" height="20">
  <data encoding="csv">
0,0,0,0,0,0,0,0,0,0,0,0,0,0,0,0,0,0,0,0,0,0,0,0,0,0,0,0,0,0,
0,0,0,0,0,0,0,0,0,0,0,0,0,0,0,0,0,0,0,0,0,0,0,0,0,0,0,0,0,0,
0,0,0,0,0,0,0,1,5,2,3,4,5,3,4,5,2,3,4,4,4,3,4,5,6,0,0,0,0,0,
0,0,0,0,0,0,0,1,80,80,80,80,80,80,80,80,80,80,80,17,17,80,80,80,26,0,0,0,0,0,
0,0,0,0,0,0,0,1,80,80,80,80,80,80,80,80,80,80,80,213,219,215,80,80,36,0,0,0,0,0,
0,0,0,0,0,0,0,1,80,80,80,80,80,80,80,80,80,80,80,224,225,226,80,80,36,0,0,0,0,0,
0,0,0,0,0,0,0,1,80,80,80,80,80,80,80,80,80,80,80,224,225,226,80,80,36,0,0,0,0,0,
0,0,0,0,0,0,0,1,80,80,80,213,214,214,214,214,214,214,214,241,225,226,80,80,36,0,0,0,0,0,
0,0,0,0,0,0,0,11,80,80,80,235,236,236,236,236,236,236,236,236,236,237,80,80,36,0,0,0,0,0,
0,0,0,0,0,0,0,21,80,80,80,80,80,80,80,80,80,80,80,26,11,1306,80,80,36,0,0,0,0,0,
0,0,0,0,0,0,0,31,80,80,80,80,80,80,80,80,80,80,80,26,11,80,80,80,36,0,0,0,0,0,
0,0,0,0,0,0,0,41,42,43,42,43,45,56,5,67,68,5,55,42,42,42,42,43,46,0,0,0,0,0,
0,0,0,0,0,0,0,0,0,0,0,0,0,11,80,80,80,80,16,0,0,0,0,0,0,0,0,0,0,0,
0,0,0,0,0,0,0,0,0,0,0,0,0,11,80,80,80,80,16,0,0,0,0,0,0,0,0,0,0,0,
0,0,0,0,0,0,0,0,0,0,0,0,0,11,80,80,80,80,16,0,0,0,0,0,0,0,0,0,0,0,
0,0,0,0,0,0,0,0,0,0,0,0,0,11,80,80,80,80,16,0,0,0,0,0,0,0,0,0,0,0,
0,0,0,0,0,0,0,0,0,0,0,0,0,11,80,80,80,80,16,0,0,0,0,0,0,0,0,0,0,0,
0,0,0,0,0,0,0,0,0,0,0,0,0,11,80,80,80,80,16,0,0,0,0,0,0,0,0,0,0,0,
0,0,0,0,0,0,0,0,0,0,0,0,0,11,80,80,80,80,16,0,0,0,0,0,0,0,0,0,0,0,
0,0,0,0,0,0,0,0,0,0,0,0,0,11,80,80,80,80,16,0,0,0,0,0,0,0,0,0,0,0
</data>
 </layer>
 <layer id="3" name="back" width="30" height="20">
  <data encoding="csv">
0,0,0,0,0,0,0,0,0,0,0,0,0,0,0,0,0,0,0,0,0,0,0,0,0,0,0,0,0,0,
0,0,0,0,0,0,0,0,0,0,0,0,0,0,0,0,0,0,0,0,0,0,0,0,0,0,0,0,0,0,
0,0,0,0,0,0,0,0,0,119,0,0,0,119,0,0,0,119,0,133,133,0,0,119,0,0,0,0,0,0,
0,0,0,0,0,0,0,0,0,0,0,0,0,0,0,0,0,0,0,141,141,0,0,0,0,0,0,0,0,0,
0,0,0,0,0,0,0,0,0,0,0,0,0,0,0,0,0,0,0,0,0,0,0,0,0,0,0,0,0,0,
0,0,0,0,0,0,0,0,110,0,0,0,0,0,0,0,0,0,0,0,0,0,0,0,0,0,0,0,0,0,
0,0,0,0,0,0,0,0,0,0,0,0,0,0,0,0,0,0,0,0,0,0,0,0,0,0,0,0,0,0,
0,0,0,0,0,0,0,0,0,0,0,0,0,0,0,0,0,0,0,0,0,0,0,0,0,0,0,0,0,0,
0,0,0,0,0,0,0,0,0,0,0,0,0,0,0,0,0,0,0,0,0,0,0,0,0,0,0,0,0,0,
0,0,0,0,0,0,0,0,110,0,0,0,0,0,0,0,0,0,0,0,0,0,0,0,0,0,0,0,0,0,
0,0,0,0,0,0,0,0,0,0,0,0,0,0,0,0,0,0,0,0,0,0,0,85,0,0,0,0,0,0,
0,0,0,0,0,0,0,0,0,0,0,0,0,0,157,0,0,157,0,0,0,0,0,0,0,0,0,0,0,0,
0,0,0,0,0,0,0,0,0,0,0,0,0,0,110,189,189,2147483758,0,0,0,0,0,0,0,0,0,0,0,0,
0,0,0,0,0,0,0,0,0,0,0,0,0,0,197,0,0,197,0,0,0,0,0,0,0,0,0,0,0,0,
0,0,0,0,0,0,0,0,0,0,0,0,0,0,197,197,0,197,0,0,0,0,0,0,0,0,0,0,0,0,
0,0,0,0,0,0,0,0,0,0,0,0,0,0,181,182,0,197,0,0,0,0,0,0,0,0,0,0,0,0,
0,0,0,0,0,0,0,0,0,0,0,0,0,0,181,182,0,197,0,0,0,0,0,0,0,0,0,0,0,0,
0,0,0,0,0,0,0,0,0,0,0,0,0,0,181,182,0,197,0,0,0,0,0,0,0,0,0,0,0,0,
0,0,0,0,0,0,0,0,0,0,0,0,0,0,181,182,0,197,0,0,0,0,0,0,0,0,0,0,0,0,
0,0,0,0,0,0,0,0,0,0,0,0,0,0,0,0,0,0,0,0,0,0,0,0,0,0,0,0,0,0
</data>
 </layer>
</map>
