<?xml version="1.0" encoding="UTF-8"?>
<map version="1.10" tiledversion="1.12.2" orientation="orthogonal" renderorder="right-down" width="30" height="20" tilewidth="16" tileheight="16" infinite="0" nextlayerid="10" nextobjectid="18">
 <tileset firstgid="1" source="TilesetRelief.tsx"/>
 <tileset firstgid="241" source="TilesetNature.tsx"/>
 <tileset firstgid="745" source="TilesetReliefDetail.tsx"/>
 <tileset firstgid="889" source="TilesetHouse.tsx"/>
 <tileset firstgid="1648" source="TilesetFloorB.tsx"/>
 <tileset firstgid="1725" source="TilesetFloorDetail.tsx"/>
 <tileset firstgid="1805" source="TilesetTowers.tsx"/>
 <tileset firstgid="1949" source="tileset_camp.tsx"/>
 <tileset firstgid="2156" source="objects.tsx"/>
 <layer id="1" name="floor" width="30" height="20">
  <data encoding="csv">
23,23,23,23,23,619,620,620,22,23,23,23,23,23,23,23,23,23,23,23,23,23,23,23,23,23,23,23,23,23,
23,23,23,23,23,23,23,23,22,23,777,777,777,777,23,23,23,23,23,23,23,23,23,23,23,23,23,23,23,23,
23,23,23,23,23,23,23,23,777,777,777,23,1660,1660,23,23,23,23,23,23,23,23,23,23,23,23,23,23,23,23,
23,23,23,23,23,23,23,23,22,1660,1660,1660,1660,1660,23,23,23,23,23,23,23,23,23,23,23,23,23,23,23,23,
23,23,23,23,23,23,0,23,22,1660,23,23,23,23,23,23,23,23,23,23,23,23,23,23,23,23,23,23,23,23,
23,23,23,23,23,23,23,23,22,23,23,23,23,23,23,23,23,23,23,23,23,23,23,23,23,23,23,23,23,23,
23,23,23,23,23,23,23,23,22,23,23,23,23,23,23,23,23,23,23,23,23,23,23,23,23,23,23,23,23,23,
23,23,23,23,23,23,23,23,22,23,23,23,23,23,23,23,23,23,23,23,23,23,23,23,23,23,23,23,23,23,
23,23,23,23,23,23,23,23,22,23,23,23,23,23,23,23,23,23,23,23,23,23,23,23,23,23,23,23,23,23,
23,23,23,23,23,23,23,23,5,6,6,6,6,6,7,23,23,23,5,6,6,6,6,6,6,6,6,10,10,11,
23,23,23,23,23,23,23,23,25,26,26,26,26,26,27,23,23,23,25,26,26,26,26,26,26,26,26,30,30,31,
23,23,23,23,23,23,23,23,25,26,26,26,26,26,27,23,23,23,25,26,26,26,26,26,26,26,26,30,30,31,
23,23,23,23,23,23,23,23,25,26,26,26,26,26,27,23,23,23,25,26,26,26,26,26,26,26,26,30,30,31,
23,23,23,23,23,23,23,23,46,46,46,46,46,46,47,23,23,23,45,46,46,46,46,46,46,46,46,50,50,51,
23,23,23,23,23,23,23,23,23,23,23,23,23,23,23,23,23,23,23,23,23,23,23,23,23,23,23,23,23,23,
23,23,23,23,23,23,23,23,23,23,23,23,23,23,23,23,23,23,23,23,23,23,23,23,23,23,23,23,23,23,
23,23,23,23,23,23,23,23,23,23,23,23,23,23,23,23,23,23,23,23,23,23,23,23,23,23,23,23,23,23,
23,23,23,23,23,23,23,23,23,23,23,23,23,23,23,23,23,23,23,23,23,23,23,23,23,23,23,23,23,23,
23,23,23,23,23,23,23,23,23,23,23,23,23,23,23,23,23,23,23,23,23,23,23,23,23,23,23,23,23,23,
23,23,23,23,23,23,23,23,23,23,23,23,23,23,23,23,23,23,23,23,23,23,23,23,23,23,23,23,23,23
</data>
 </layer>
 <objectgroup id="9" name="trigger">
  <object id="4" name="portal_trigger" x="41.4316" y="31.8316" width="28.8" height="10.6105">
   <properties>
    <property name="requiresItem" value="GOLD_KEY"/>
    <property name="targetMap" value="DUNGEONMAP2"/>
    <property name="targetX" type="float" value="240.5"/>
    <property name="targetY" type="float" value="299.5"/>
   </properties>
  </object>
  <object id="8" name="portal_trigger" x="242.091" y="310.779" width="45.3333" height="8">
   <properties>
    <property name="targetMap" value="ICEMAP2"/>
    <property name="targetX" type="float" value="263"/>
    <property name="targetY" type="float" value="68.5"/>
   </properties>
  </object>
  <object id="17" name="checkpoint_trigger" x="38.3636" y="54.5455" width="35.0909" height="18.9091"/>
 </objectgroup>
 <layer id="2" name="floor2" width="30" height="20">
  <data encoding="csv">
619,619,619,619,619,620,0,0,0,0,619,619,619,619,0,0,619,619,619,619,619,619,619,425,426,762,427,426,427,427,
644,643,643,643,643,644,622,623,0,0,643,643,643,643,0,0,643,643,643,643,643,643,643,0,0,774,0,0,0,0,
362,363,364,0,0,538,646,647,538,0,0,0,0,0,0,0,540,540,540,540,540,540,540,0,0,773,762,0,0,0,
386,387,388,540,540,0,0,246,0,0,0,0,0,0,0,540,540,540,540,540,540,540,540,540,540,0,0,761,762,761,
410,411,412,540,540,0,1660,538,0,0,0,0,0,0,0,540,540,540,540,0,0,0,0,0,0,0,0,0,0,0,
0,0,0,540,540,0,0,0,0,0,0,0,0,0,0,540,540,540,0,0,0,0,0,0,0,0,0,0,0,0,
0,0,511,540,540,251,275,276,0,0,0,0,0,0,0,540,540,540,0,0,0,0,0,0,1182,1183,0,0,0,0,
0,0,0,540,540,275,276,0,0,0,0,0,0,0,0,540,540,540,0,0,0,0,0,0,1215,1216,0,0,0,0,
0,0,0,540,540,0,1779,0,0,0,0,0,0,0,0,750,750,750,0,0,0,0,0,0,0,0,0,0,0,0,
299,275,276,540,540,0,251,252,0,0,0,0,0,0,0,750,750,750,0,0,0,0,0,0,0,0,0,0,0,0,
323,324,0,540,540,1776,275,276,0,0,0,0,0,0,0,750,750,750,0,0,0,0,0,0,0,0,0,0,0,0,
347,348,0,540,540,1778,0,0,0,0,0,0,0,0,0,750,750,750,0,0,0,0,0,0,0,0,0,0,0,0,
0,0,1776,540,540,369,1779,0,372,0,0,0,0,0,0,750,750,750,0,0,0,0,0,0,0,0,0,0,0,0,
0,511,0,540,540,0,394,395,0,297,0,0,300,0,0,750,750,750,0,0,0,0,0,0,0,0,0,0,0,0,
0,0,0,540,540,417,418,419,420,0,322,323,0,0,1776,750,750,750,0,0,0,0,0,0,0,0,0,0,0,0,
0,0,0,540,540,0,0,0,0,345,346,347,348,0,1779,750,750,750,0,0,0,0,1778,0,0,0,0,0,0,0,
0,0,0,540,540,540,540,540,540,540,540,540,540,540,540,750,750,750,0,0,0,0,0,0,0,0,0,0,0,0,
0,0,0,540,540,540,540,540,540,540,540,540,540,540,540,750,750,750,0,0,0,1778,0,0,0,0,0,1778,0,0,
0,1779,0,0,1776,0,0,0,0,0,0,0,0,0,1776,750,750,750,0,0,0,0,0,0,0,0,0,0,0,0,
0,0,0,0,0,0,0,0,0,1779,0,0,0,0,0,750,750,750,0,0,0,0,0,0,0,0,0,0,0,0
</data>
 </layer>
 <layer id="4" name="floor3" width="30" height="20">
  <data encoding="csv">
0,0,829,830,831,0,0,0,0,0,0,0,0,0,0,0,0,0,0,0,0,0,0,623,0,0,449,450,449,450,
0,0,841,842,843,0,0,0,598,599,594,595,596,597,0,0,0,0,0,0,0,0,0,647,0,0,473,474,473,474,
0,0,0,0,0,0,622,623,622,623,618,619,620,621,0,0,0,0,0,0,0,0,0,0,0,0,0,473,474,475,
0,0,0,0,0,0,646,647,646,647,642,643,644,645,0,0,0,0,0,0,0,0,0,0,0,0,0,0,0,0,
0,0,0,0,0,0,0,0,0,0,0,0,0,0,0,0,0,0,0,0,0,0,0,0,0,0,0,0,0,0,
0,0,0,0,0,0,0,0,0,0,0,0,0,0,0,0,0,0,0,0,0,0,0,0,0,0,0,0,0,0,
0,0,0,0,0,0,0,0,0,0,0,0,0,0,0,0,0,0,0,0,0,0,0,0,0,0,0,0,0,0,
0,0,0,0,0,275,276,0,0,0,0,0,0,0,0,0,0,0,0,0,0,0,0,0,0,0,0,0,0,0,
0,0,0,0,0,0,0,0,0,0,0,0,0,0,0,0,0,0,0,0,0,0,0,0,0,0,0,0,0,0,
0,0,0,0,0,0,0,0,0,0,0,0,0,0,0,0,0,0,0,0,0,0,0,0,0,0,0,0,0,0,
0,0,0,0,0,0,0,0,0,0,0,0,0,0,0,0,0,0,0,0,0,0,0,0,0,0,0,0,0,0,
0,0,0,0,0,0,0,0,0,0,0,0,0,0,0,0,0,0,0,0,0,0,0,0,0,0,0,0,0,0,
0,0,0,0,0,0,0,0,0,0,0,0,0,0,0,0,0,0,0,0,0,0,0,0,0,0,0,0,0,0,
0,0,0,0,0,0,0,0,0,0,0,0,0,0,0,0,0,0,0,0,0,0,0,0,0,0,0,0,0,0,
0,0,0,0,0,0,0,0,0,0,0,0,0,0,0,0,0,0,0,0,0,0,0,0,0,0,0,0,0,0,
0,0,0,0,0,0,0,0,0,0,0,0,0,0,0,0,0,0,0,0,0,0,0,0,0,0,0,0,0,0,
0,0,0,0,0,0,0,0,0,0,0,0,0,0,0,0,0,0,0,0,0,0,0,0,0,0,0,0,0,0,
0,0,0,0,0,0,0,0,0,0,0,0,0,0,0,0,0,0,0,0,0,0,0,0,0,0,0,0,0,0,
0,0,275,276,0,0,0,0,0,0,0,275,276,0,0,0,0,0,0,0,0,0,0,0,0,0,0,0,0,0,
0,0,0,0,0,0,0,0,0,0,0,0,0,0,0,0,0,0,0,0,0,0,0,0,0,0,0,0,0,0
</data>
 </layer>
 <layer id="3" name="back" width="30" height="20">
  <data encoding="csv">
0,0,0,0,0,0,0,0,618,619,619,619,619,619,619,619,620,621,0,0,0,0,0,0,0,0,0,0,0,0,
0,0,0,747,0,0,0,0,642,643,594,595,596,597,643,643,644,645,0,0,0,0,0,0,0,0,0,449,450,0,
0,0,0,0,0,0,0,0,0,0,618,619,620,621,0,0,0,0,0,0,0,0,0,0,0,0,0,473,474,0,
0,0,0,0,0,245,246,0,592,593,592,593,644,645,0,0,0,0,0,1365,0,0,0,0,0,0,0,0,0,0,
0,0,0,0,0,269,270,0,616,617,616,617,668,0,0,0,0,0,1366,1398,0,0,704,0,0,0,0,0,0,0,
0,300,0,0,0,0,0,0,666,668,667,0,0,0,0,0,0,0,1399,0,0,727,728,729,0,0,0,0,0,0,
323,0,0,0,0,0,0,0,666,0,0,0,0,0,0,0,0,0,0,0,0,1233,1234,0,0,0,0,1347,1348,0,
347,348,0,0,0,0,0,0,0,0,0,0,0,0,0,0,0,0,0,0,0,1266,1267,0,0,0,0,1380,1381,0,
0,0,0,0,0,0,0,0,0,0,0,0,0,0,0,0,0,0,0,0,0,0,0,0,1027,1028,0,0,0,0,
299,300,0,0,0,0,0,0,0,0,0,0,0,0,0,0,0,0,0,0,0,0,0,0,0,0,0,0,0,0,
323,324,0,0,0,0,0,0,0,0,0,0,0,0,0,0,0,0,0,0,0,0,0,0,0,0,0,0,0,0,
251,252,0,0,0,0,0,0,0,0,0,0,0,0,0,0,0,0,0,0,0,0,0,0,0,0,0,0,0,0,
275,276,0,0,0,0,0,0,0,0,0,0,0,0,0,0,0,0,0,0,0,0,0,0,0,0,0,0,0,0,
0,0,0,0,0,0,0,0,0,0,0,0,0,0,0,0,0,0,369,0,0,372,0,0,0,369,370,371,372,0,
0,0,300,0,0,0,0,0,0,0,0,0,0,0,0,0,0,0,0,394,395,0,277,278,0,0,394,395,0,531,
322,323,0,0,0,0,0,0,0,0,0,0,0,0,0,0,0,0,417,418,419,420,369,0,0,417,418,419,420,555,
346,347,348,0,0,0,0,0,0,0,0,0,0,0,0,0,0,0,0,539,0,0,0,394,395,0,0,539,0,0,
0,0,0,0,0,0,0,0,0,0,0,0,0,0,0,0,0,0,0,0,0,369,417,418,419,420,0,0,0,0,
0,0,0,0,0,297,0,0,300,0,0,0,0,0,0,0,0,0,277,278,564,0,394,395,0,0,564,0,277,278,
0,0,0,0,0,0,322,323,0,0,0,0,0,0,0,0,0,0,0,0,0,417,418,419,420,0,0,0,0,0
</data>
 </layer>
 <layer id="5" name="back2" width="30" height="20">
  <data encoding="csv">
0,0,0,0,0,0,0,0,0,0,0,0,0,0,0,0,0,0,0,0,0,0,1258,1259,1260,0,0,0,0,0,
0,0,2070,0,2147485718,0,0,0,0,0,0,0,0,0,0,0,0,0,0,0,0,0,1291,1292,1293,0,0,0,0,0,
0,0,2093,0,2147485741,0,0,0,0,0,0,0,0,0,0,0,0,0,0,0,0,0,1324,1325,1326,0,0,0,0,0,
0,0,0,0,0,0,0,0,0,0,0,0,0,0,0,0,0,0,0,0,0,0,0,0,0,0,0,0,0,0,
0,0,0,0,0,0,0,0,0,0,0,0,0,0,0,0,0,0,0,0,0,0,0,0,1859,1860,0,704,0,0,
0,0,0,0,0,0,0,0,0,369,0,0,277,278,0,0,0,0,0,0,0,0,0,0,1883,1884,727,728,729,0,
0,0,0,0,0,0,0,0,0,393,394,395,0,0,0,0,0,0,0,0,0,0,0,0,0,0,0,0,0,0,
0,0,0,0,0,0,0,0,0,417,418,419,420,0,0,0,0,0,0,0,0,0,0,0,0,0,0,0,1497,0,
0,0,0,0,0,0,0,0,0,0,0,0,0,0,0,0,0,0,0,0,0,0,0,0,0,0,0,0,1530,0,
0,0,0,0,0,0,0,0,0,0,0,0,0,0,0,0,0,0,0,0,0,0,0,0,0,0,0,0,0,0,
0,0,0,0,0,0,0,0,0,0,0,0,0,0,0,0,0,0,0,0,0,0,0,0,0,0,0,0,0,0,
0,0,0,0,0,0,0,0,0,0,0,0,0,0,0,0,0,0,0,0,0,0,0,0,0,0,0,0,0,0,
0,0,0,0,0,0,0,0,0,0,0,0,0,0,0,0,0,0,0,0,0,0,0,0,0,0,0,0,0,0,
0,0,0,0,0,0,0,0,0,0,0,0,0,0,0,0,0,0,0,0,0,0,0,0,0,0,0,0,0,0,
0,0,0,0,0,0,0,0,0,0,0,0,0,0,0,0,0,0,0,0,0,0,0,0,0,0,0,0,0,0,
0,0,0,0,0,0,0,0,0,0,0,0,0,0,0,0,0,0,0,0,0,0,0,0,0,0,0,0,0,0,
0,0,0,0,0,0,0,0,0,0,0,0,0,0,0,0,0,0,0,0,0,0,0,0,0,0,0,0,0,0,
0,0,0,0,0,0,0,0,0,0,0,0,0,0,0,0,0,0,0,0,0,0,0,0,0,0,0,0,0,0,
0,0,0,0,0,0,0,0,0,0,0,0,0,0,0,0,0,0,0,0,0,0,0,0,0,0,0,0,0,0,
0,0,0,0,0,0,0,0,0,0,0,0,0,0,0,0,0,0,0,0,0,0,0,0,0,0,0,0,0,0
</data>
 </layer>
 <objectgroup id="8" name="objects">
  <object id="3" name="Player" gid="2157" x="40.1541" y="71.3962" width="32" height="32">
   <properties>
    <property name="camFollow" type="bool" value="true"/>
    <property name="controller" type="bool" value="true"/>
   </properties>
  </object>
  <object id="11" name="black_smith" gid="2197" x="337.272" y="107.608" width="16" height="16">
   <properties>
    <property name="dialogue" value="Who are you? This is no place for the weak."/>
    <property name="npcName" value="black_smith"/>
   </properties>
  </object>
  <object id="12" gid="2199" x="2.83813" y="94.1889" width="9.80678" height="8.29068"/>
  <object id="13" gid="2199" x="80.7694" y="297.774" width="9.80678" height="8.29068"/>
  <object id="14" gid="2199" x="323.337" y="140.363" width="9.80678" height="8.29068"/>
  <object id="15" gid="2199" x="178.313" y="139.331" width="9.80678" height="8.29068"/>
  <object id="16" gid="2199" x="83.866" y="203.843" width="9.80678" height="8.29068"/>
 </objectgroup>
 <layer id="6" name="fore1" width="30" height="20">
  <data encoding="csv">
0,0,0,0,0,0,0,0,0,0,0,0,0,0,0,0,0,0,0,0,0,0,0,0,0,0,0,0,0,0,
0,0,0,0,0,0,0,0,0,0,0,0,0,0,0,0,0,0,0,0,0,0,0,0,0,0,0,0,0,0,
0,0,0,0,0,0,0,0,0,0,0,0,0,0,0,0,0,0,0,0,0,0,0,0,0,0,0,0,0,0,
0,0,0,0,0,0,0,0,0,0,0,0,0,0,0,0,0,0,0,0,0,679,680,681,0,0,679,680,681,0,
0,0,0,0,0,0,0,0,0,0,0,0,298,299,0,0,0,0,0,0,0,703,0,705,0,0,703,0,705,0,
0,0,0,0,0,0,366,367,0,0,370,371,0,0,0,0,0,0,0,0,0,0,0,0,0,0,0,0,729,0,
0,324,0,0,0,366,367,0,0,0,0,0,396,0,0,0,0,0,0,0,0,0,0,0,0,0,0,0,0,0,
0,0,0,0,0,0,0,0,0,0,0,0,0,0,1572,0,0,0,1572,0,0,0,0,0,0,0,0,0,0,0,
0,366,367,0,0,0,0,0,0,0,0,0,0,0,1605,0,0,0,1605,0,0,0,0,0,0,0,0,0,0,0,
0,0,0,0,0,0,0,0,0,0,0,0,0,0,0,0,0,0,0,0,0,0,0,0,0,0,0,0,0,0,
0,0,0,0,0,0,0,0,0,0,0,0,0,0,0,0,0,0,0,0,0,0,0,0,0,0,0,0,0,0,
0,0,0,0,0,0,0,0,0,0,0,0,0,0,0,0,0,0,0,0,0,0,0,0,0,0,0,0,0,0,
0,0,0,0,0,0,370,371,0,0,0,0,0,0,0,0,0,0,0,0,0,0,0,0,0,0,0,0,0,0,
0,0,0,0,0,393,0,0,396,0,298,299,0,0,0,0,0,0,0,370,371,0,298,299,0,0,0,0,0,0,
298,299,0,0,0,0,0,0,0,253,0,0,254,0,0,0,0,0,393,0,0,396,0,0,0,393,0,0,396,0,
0,0,324,0,0,0,0,0,0,0,0,0,0,0,0,0,0,0,0,0,0,0,0,370,371,0,0,0,0,0,
0,0,0,0,0,0,0,0,0,0,0,0,0,0,0,0,0,0,0,0,0,0,393,0,0,396,0,0,0,0,
0,0,366,367,0,0,0,0,0,0,0,370,371,0,0,0,0,0,298,299,0,0,370,371,0,0,0,0,298,299,
0,0,0,0,0,0,298,299,0,0,0,0,0,0,0,0,0,0,0,0,0,393,0,0,396,0,0,0,0,0,
0,0,0,0,0,321,0,0,324,0,0,0,0,0,0,0,0,0,0,0,0,0,0,0,0,0,0,0,0,0
</data>
 </layer>
</map>
