<?xml version="1.0" encoding="UTF-8"?>
<map version="1.10" tiledversion="1.12.2" orientation="orthogonal" renderorder="right-down" width="30" height="20" tilewidth="16" tileheight="16" infinite="0" nextlayerid="5" nextobjectid="1">
 <tileset firstgid="1" source="floor.tsx"/>
 <tileset firstgid="16" source="TilesetRelief.tsx"/>
 <tileset firstgid="256" source="TilesetHouse.tsx"/>
 <tileset firstgid="1015" source="TilesetFloor.tsx"/>
 <tileset firstgid="1587" source="TilesetFloorB.tsx"/>
 <tileset firstgid="1664" source="TilesetReliefDetail.tsx"/>
 <tileset firstgid="1808" source="TilesetWater.tsx"/>
 <tileset firstgid="2284" source="TilesetNature.tsx"/>
 <tileset firstgid="2788" source="TilesetFloorDetail.tsx"/>
 <tileset firstgid="2868" source="Combined.tsx"/>
 <layer id="1" name="floor" width="30" height="20">
  <data encoding="csv">
1633,957,1599,1599,1633,1633,1633,1633,1633,1633,1633,1633,1633,1633,1633,1633,1633,1633,1633,1633,1633,1633,1633,1633,1633,1633,1633,1633,1633,1633,
1633,990,1599,1599,1633,1633,1633,1633,1633,1633,1633,1633,1633,1633,1633,1633,1633,1633,1633,1633,1633,1633,1633,1633,1633,1633,1633,1633,1633,1633,
1633,1633,1633,1633,1633,1633,60,61,61,61,1633,1633,1633,1633,1633,1633,1633,1633,1633,1633,1633,1633,1633,1633,1633,1633,1633,1633,1633,1633,
1633,1633,58,59,58,59,1599,1599,1599,1599,1603,1611,1633,1500,43,1837,1633,1633,1633,1633,1633,1633,1837,23,1599,1633,1633,1633,1633,1599,
1633,1587,1599,1633,1633,1599,1599,1599,1599,1599,1600,1587,1588,1500,43,1837,1837,1837,1837,1837,1837,1837,1837,1610612799,1599,957,927,927,1633,1599,
1599,1599,1633,1633,1633,1599,1599,1599,1599,1599,1600,1637,1477,43,43,43,1837,1837,1837,1837,1837,1837,1610612799,1599,1599,923,927,927,923,1599,
1599,1599,1633,1633,1633,1633,1633,1633,1633,1599,1614,1588,1499,1500,43,43,43,43,43,43,43,43,1610612799,1599,1599,1599,927,927,957,1599,
1599,1599,1633,1633,1633,1633,1633,1633,1633,1599,1599,1588,1499,1500,1642,43,43,43,43,43,43,43,1610612799,1500,1599,1600,960,960,1598,1599,
1610,1610,1610,1610,1610,1610,1610,1610,1604,1599,1599,1599,1521,1500,1500,43,43,43,43,43,1642,43,1500,1523,1599,1600,1633,1633,1598,1599,
1633,1633,1633,1633,1633,1633,1633,1633,1598,1599,1599,1599,1599,1521,1522,1500,1522,1522,1522,1500,1522,1522,1522,1599,1599,1600,1633,1633,1598,1599,
1634,1634,1634,1634,1633,1634,1631,1633,1598,1599,1599,1599,1599,1599,1599,1599,1599,1599,1599,1599,1599,1599,1599,1599,1599,1600,1633,1633,1598,1599,
1588,1588,1588,1588,1588,1589,1634,1633,1598,1599,1599,1599,1599,1599,1599,1603,1610,1610,1604,1599,1599,1599,1599,1599,1599,1600,1633,1633,1598,1599,
1599,1599,1599,1599,1599,1600,1634,1633,1598,1599,1599,1599,1599,1599,1599,1600,1633,1633,1598,1599,1599,1599,1599,1599,1599,1600,1633,1633,1598,1599,
1599,1599,1599,1599,1599,1600,1634,1633,0,1599,1599,1599,1599,1599,1599,1600,1633,1633,1598,1599,1599,1599,1599,1599,1599,1600,1633,1633,1598,1599,
1599,1599,1633,1599,1599,1600,1634,1633,1609,1610,1610,1610,1610,1610,1610,1611,1633,1633,1609,1610,1610,1610,1610,1610,1610,1611,1633,1633,1598,1599,
1599,1599,1599,1599,1599,1600,1634,1633,1633,1633,1633,1633,1633,1633,1633,1633,1633,1633,1633,1633,1633,1633,1633,1633,1633,1633,1633,1633,1598,1599,
1599,1599,1599,1599,1599,1600,1634,1633,1633,1633,1633,1633,1633,1633,1633,1633,1633,1633,1633,1633,1633,1633,1633,1633,1633,1633,1633,1633,1598,1599,
1599,1599,1599,1599,1599,1614,1588,1588,1588,1588,1588,1588,1588,1588,1588,1588,1588,1588,1588,1588,1588,1588,1588,1588,1588,1589,1633,1633,1598,1599,
1599,1599,1599,1599,1599,1599,1599,1599,1599,1599,1599,1599,1599,1599,1599,1599,1599,1599,1599,1599,1599,1599,1599,1599,1599,1600,1633,1633,1598,1599,
1599,1599,1599,1599,1599,1599,1599,1599,1599,1599,1599,1599,1599,1599,1599,1599,1599,1599,1599,1599,1599,1599,1599,1599,1599,1600,1633,1633,1598,1599
</data>
 </layer>
 <layer id="4" name="Tile Layer 3" width="30" height="20">
  <data encoding="csv">
0,0,0,0,0,0,0,0,0,0,0,0,0,0,0,0,0,0,0,0,0,0,0,0,0,0,0,0,0,0,
0,0,0,0,0,0,0,0,0,0,0,0,0,0,0,0,0,0,0,0,0,0,0,0,0,0,0,0,0,0,
0,0,0,0,0,0,0,0,0,0,0,0,0,0,0,0,0,0,0,0,0,0,0,0,0,0,0,0,0,0,
0,0,0,0,0,0,0,0,0,0,0,0,0,0,0,0,0,0,0,0,0,0,0,0,0,0,0,0,0,0,
0,0,0,0,0,0,0,0,0,0,0,0,0,0,0,0,0,0,0,0,0,0,1692,0,0,0,0,0,0,0,
0,0,0,0,0,0,0,0,0,0,0,0,0,1611,0,1680,0,0,2574,2575,0,0,0,0,0,0,0,0,0,0,
2292,2293,0,0,0,0,0,0,0,0,0,0,0,0,0,0,0,0,2598,2599,0,0,0,0,0,0,0,0,0,0,
2316,2317,0,0,0,0,0,0,0,0,0,0,0,0,0,0,0,0,0,0,0,0,0,1484,0,0,0,0,0,0,
0,0,0,0,0,0,0,0,0,0,0,0,0,0,0,0,0,0,0,0,0,0,0,2292,2293,0,0,0,0,0,
0,0,0,0,0,0,0,0,0,0,0,0,0,0,0,0,0,0,0,0,0,0,1587,2316,2317,0,0,0,0,0,
0,0,0,0,0,0,0,0,0,0,0,0,0,0,0,0,0,0,0,0,0,0,0,0,0,0,0,0,2292,2293,
0,0,0,0,0,0,0,0,2292,2293,0,0,0,0,0,0,0,0,0,0,0,0,0,0,0,0,0,0,2316,2317,
2292,2293,375,2292,2293,0,0,0,2316,2317,0,0,0,0,0,0,0,0,0,0,0,0,0,0,0,0,0,0,0,0,
2316,2317,408,2316,2317,0,0,0,0,0,0,0,0,0,0,0,0,0,0,0,0,0,0,0,0,0,0,0,0,0,
0,0,0,0,0,0,0,0,0,0,0,0,0,0,0,0,0,0,0,0,0,0,0,0,0,0,0,0,0,0,
0,0,0,0,0,0,0,0,0,0,0,0,0,0,0,0,0,0,0,0,0,0,0,0,0,0,0,0,2292,2293,
0,413,414,415,0,0,0,0,0,0,0,0,0,0,0,0,0,0,0,0,0,0,0,0,0,0,0,0,2316,2317,
2292,446,447,448,2293,0,0,2408,2409,2410,2411,0,0,0,2292,2293,0,0,0,0,0,0,0,0,0,0,0,0,0,0,
2316,2317,0,2316,2317,0,0,2432,2433,2434,2435,0,0,0,2316,2317,0,0,0,0,0,0,0,0,0,0,0,0,0,0,
0,0,0,0,0,0,0,2456,2457,2458,2459,0,0,0,0,0,0,0,0,0,0,0,0,0,0,0,0,0,0,0
</data>
 </layer>
 <layer id="2" name="background" width="30" height="20">
  <data encoding="csv">
38,957,888,889,957,39,20,21,21,21,21,21,21,21,21,22,2879,2879,2879,2879,2879,2879,20,21,21,1681,1669,1669,1681,21,
38,990,921,922,990,39,40,41,41,41,41,41,41,41,41,42,2872,2872,2872,2872,2872,2872,40,41,41,1681,1669,1669,1681,41,
38,38,38,38,38,39,2408,2409,2410,2411,61,61,1681,61,61,62,2872,2872,2872,2872,2872,2872,60,61,61,1681,1669,1669,1681,61,
1681,58,512,513,514,515,2432,2433,2434,2435,0,0,1693,1499,0,0,2868,2868,2868,2868,2868,2868,0,0,0,1681,1669,1669,1681,1633,
1693,0,545,546,547,548,2456,2457,2458,2459,0,2577,2635,2636,0,0,0,0,952,953,0,0,0,0,0,890,894,894,890,0,
0,0,578,579,580,581,902,903,904,0,2842,1637,2659,2660,0,0,0,0,985,986,0,0,0,2635,2636,945,946,946,947,0,
0,0,611,612,613,614,935,936,937,2582,0,2683,2684,0,0,0,0,0,0,0,0,0,0,2659,2660,978,979,979,980,0,
0,0,644,645,646,647,968,969,970,0,0,2707,2708,1692,0,0,0,0,0,0,0,0,0,2837,0,1011,1012,1012,1013,0,
0,0,0,0,0,0,0,0,0,2505,743,744,745,746,1680,0,0,0,0,0,0,0,2711,0,0,0,0,0,0,0,
0,0,0,0,0,0,0,0,0,0,776,777,778,779,0,957,888,889,957,2709,0,285,286,287,288,0,0,0,2551,1633,
1632,1632,1632,1632,1632,1632,1632,0,0,0,809,810,811,812,0,990,921,922,990,734,0,318,319,320,321,0,0,0,0,0,
0,0,939,0,0,0,1634,0,0,0,842,843,844,845,2296,2297,0,0,0,767,701,351,352,353,354,0,0,0,0,0,
0,374,972,573,0,0,1634,0,0,0,875,876,877,878,2320,2321,0,0,0,615,616,384,385,386,387,0,0,0,0,0,
0,407,408,409,0,0,1634,0,0,0,2553,0,2553,2553,0,0,0,0,0,617,1696,0,0,0,846,0,0,0,0,0,
0,440,441,442,0,0,1634,0,0,0,0,0,0,0,0,0,0,0,0,0,0,0,0,0,0,0,0,0,0,0,
0,380,381,382,2551,0,0,0,0,0,0,0,0,0,0,0,0,0,0,0,0,0,0,0,0,0,0,0,0,0,
0,413,1696,415,0,0,0,0,0,0,0,0,0,0,0,0,0,0,0,0,0,0,0,0,0,0,0,0,0,0,
2292,2293,447,2292,2293,0,0,0,0,0,0,0,0,0,0,0,0,2478,2479,0,0,0,0,2478,2479,0,0,0,0,0,
2316,2317,0,2316,2317,0,0,0,0,0,0,0,2478,2479,0,0,0,2502,2503,2408,2409,2410,2411,2502,2503,0,0,0,0,0,
0,0,0,0,0,0,0,0,0,0,0,0,2502,2503,0,0,0,0,0,2432,2433,2434,2435,0,0,0,0,0,0,0
</data>
 </layer>
 <objectgroup id="3" name="Object Layer 1"/>
</map>
