<?xml version="1.0" encoding="UTF-8"?>
<map version="1.10" tiledversion="1.12.2" orientation="orthogonal" renderorder="right-down" width="30" height="20" tilewidth="16" tileheight="16" infinite="0" nextlayerid="7" nextobjectid="1">
 <tileset firstgid="1" source="TilesetFloorB.tsx"/>
 <tileset firstgid="78" source="TilesetWater.tsx"/>
 <tileset firstgid="554" source="TilesetFloor.tsx"/>
 <tileset firstgid="1126" source="TilesetHouse.tsx"/>
 <tileset firstgid="1885" source="TilesetElement.tsx"/>
 <tileset firstgid="2125" source="TilesetRelief.tsx"/>
 <tileset firstgid="2365" source="TilesetNature.tsx"/>
 <tileset firstgid="2869" source="TilesetReliefDetail.tsx"/>
 <tileset firstgid="3013" source="tileset_camp.tsx"/>
 <layer id="1" name="floor" width="30" height="20">
  <data encoding="csv">
13,13,13,13,13,13,13,13,13,2149,2150,2150,2150,2155,2156,2155,2147,2147,2147,2150,2150,2155,2156,2150,2150,2150,2150,2150,2155,2156,
13,91,92,92,92,92,93,13,13,2169,2170,2170,2170,2175,2176,2175,2147,2147,2147,2170,2170,2175,2176,2170,2126,2127,2127,2127,2127,2127,
13,119,124,125,186,130,121,13,13,13,13,13,13,13,13,2147,2147,2147,2147,2147,13,13,13,13,2146,2147,2147,2147,2147,2147,
13,119,152,153,214,120,121,13,13,13,13,13,13,13,13,2147,2147,2147,2147,12,13,13,13,13,13,2147,2147,2147,2147,2147,
13,147,148,125,130,120,152,92,93,13,13,13,13,13,13,2147,13,2147,2147,2147,13,13,13,13,2129,2209,2147,2147,2147,2147,
13,13,13,119,120,130,214,120,121,13,13,13,13,13,13,2147,2147,2147,2147,2147,13,13,13,2147,2169,2146,13,13,13,13,
13,13,13,147,148,148,148,148,149,13,13,13,13,13,13,2147,2147,2147,2147,2147,13,13,972,13,13,2146,13,13,13,13,
13,13,13,13,13,13,13,13,13,13,17,24,24,24,24,24,24,24,24,24,24,24,24,24,18,2129,1763,1764,1765,2131,
13,13,13,13,13,13,13,13,885,17,25,47,47,47,47,47,47,47,47,47,47,47,47,47,12,2169,1796,1797,1798,2171,
13,13,13,13,13,13,13,13,17,25,47,47,47,47,47,47,47,47,47,47,47,47,47,47,23,24,1829,1830,1831,13,
2147,2147,2147,2147,2147,2147,17,24,25,47,47,47,1,2,2,2,2,2,2,2,2,2,3,47,47,47,46,46,46,18,
2147,2147,2147,2147,2147,2147,14,47,47,47,47,47,12,13,13,13,13,178,91,92,92,92,93,2,3,47,47,47,47,12,
2147,2147,2147,2147,2147,2147,14,47,47,47,1,2,29,13,91,92,92,92,153,120,102,120,152,93,28,3,47,47,47,12,
2147,2147,2147,2147,2147,2147,28,2,2,2,29,13,13,91,153,124,125,120,186,120,120,214,120,152,93,14,47,47,47,12,
2147,2147,13,13,13,13,13,13,13,13,13,13,13,119,120,152,153,120,214,120,130,120,120,120,121,14,47,47,47,12,
13,13,13,13,13,13,13,13,13,13,13,13,13,119,120,102,120,130,120,102,120,120,120,120,121,14,47,47,47,12,
13,13,13,13,13,13,13,13,13,13,13,13,13,147,148,125,120,214,120,120,120,214,120,124,149,14,47,47,47,12,
2167,2167,2167,2167,2167,2167,2209,13,13,13,13,13,13,13,178,147,148,148,125,130,120,124,148,149,13,28,47,47,29,12,
2147,2147,2147,2147,2147,2147,2146,2147,2147,2147,2147,2147,2147,2147,2147,2147,2147,2147,147,148,148,149,2147,2147,2147,2210,2147,2147,13,2147,
2147,2147,2147,2147,2147,2147,2166,2167,2167,2167,2167,2167,2167,2167,2167,2167,2167,2167,2167,2167,2167,2167,2167,2167,2167,2168,2147,2147,2166,2167
</data>
 </layer>
 <layer id="4" name="back" width="30" height="20">
  <data encoding="csv">
0,0,0,0,0,2685,0,2688,0,0,0,0,0,0,0,0,2874,2874,2874,0,0,0,0,0,0,0,0,0,0,0,
0,0,0,0,0,0,0,0,0,2493,2494,2495,2496,0,0,1291,1292,1292,1292,1293,0,0,0,0,0,0,1495,1496,1497,0,
0,0,0,0,0,0,0,1827,0,2517,2518,2519,2520,1489,1490,1324,1325,1325,1325,1326,1490,1491,2375,2376,2635,0,1528,1529,1530,0,
1494,0,0,0,0,0,0,1860,0,2541,2542,2543,2544,1522,1523,1524,13,13,13,1522,1523,1524,2399,2400,0,0,1561,1590,1756,1757,
1527,0,0,0,0,0,0,0,0,0,0,0,0,1555,1556,1557,13,13,13,1555,1590,1557,2399,2400,0,3140,3141,0,1789,1790,
1560,0,0,0,0,0,0,0,0,2686,0,0,0,0,0,0,0,0,0,1454,1939,0,2375,2376,0,3163,3164,0,0,0,
0,1489,1490,1491,0,0,0,0,0,0,0,0,0,0,0,0,0,0,0,0,1955,0,2399,2400,0,3090,3091,0,0,0,
0,1522,1523,1524,1935,1936,0,0,0,0,0,0,0,0,0,0,0,0,0,2685,2686,0,0,0,0,0,0,0,0,0,
0,1555,1590,1557,1951,1952,0,0,0,0,0,2688,0,0,0,0,0,0,0,0,0,0,0,2664,0,0,0,0,0,0,
1493,1494,1553,1554,0,0,0,2686,0,0,0,0,0,0,0,0,0,0,0,0,0,0,0,0,0,0,0,0,0,0,
1526,1527,1586,1587,1718,1719,0,0,0,0,0,0,0,0,0,0,0,0,0,0,0,2686,0,0,0,0,0,0,0,2686,
1559,1560,1619,1620,1718,1752,0,0,0,0,0,0,0,2686,0,0,0,0,0,0,0,0,0,0,0,2664,0,0,0,0,
0,0,1652,1653,0,0,0,0,0,0,0,0,0,0,0,0,0,0,0,0,0,0,0,0,2688,0,0,0,0,2375,
2560,0,0,2559,2560,1753,1754,1755,1753,0,0,0,0,0,0,0,0,0,0,0,0,0,0,0,0,0,0,0,0,2399,
2584,0,0,2583,2584,1786,1787,1788,1786,2686,0,0,0,0,0,0,0,0,0,0,0,0,0,0,0,0,0,0,0,0,
0,0,0,2559,2560,1819,1820,1821,1819,0,0,0,0,0,0,0,0,0,0,0,0,0,0,0,0,2686,0,0,0,0,
0,0,0,2583,2584,0,1794,1794,0,0,0,0,0,0,0,0,0,0,0,0,0,0,0,2375,2376,0,0,0,0,0,
0,2421,2422,2423,2424,0,0,0,0,0,0,0,0,2686,0,0,0,0,0,0,0,0,0,2399,2375,2376,0,0,0,0,
0,2445,2446,2447,2448,0,0,0,0,0,0,0,0,2686,0,0,0,0,0,0,0,0,0,0,2399,2400,2874,2874,0,0,
0,2469,2470,2471,2472,0,0,0,0,0,0,0,0,0,0,0,0,0,0,0,0,0,0,0,0,0,2874,2874,0,0
</data>
 </layer>
 <layer id="5" name="back2" width="30" height="20">
  <data encoding="csv">
0,2399,2400,0,0,0,0,0,0,0,0,0,0,0,0,0,0,0,0,0,0,0,0,0,0,0,0,0,0,0,
0,0,0,0,0,0,0,0,0,0,0,0,0,0,0,0,0,0,0,0,0,0,0,0,0,0,0,0,0,0,
0,0,0,0,0,0,0,0,0,0,0,0,0,0,1488,1491,0,0,0,1489,0,0,0,0,2146,0,0,0,0,0,
0,0,0,0,0,0,0,0,0,0,2375,2376,0,0,0,0,0,0,0,0,0,0,2375,2376,2146,0,0,0,0,0,
0,0,0,0,0,0,0,0,0,0,1928,1929,1929,1929,1929,1930,0,0,0,0,0,0,2399,2400,0,0,0,0,0,0,
0,0,0,0,0,0,0,0,0,0,1944,1945,1945,1945,1945,1946,0,0,0,0,0,0,2375,2376,0,0,0,0,0,0,
0,0,0,0,0,0,0,0,2147485582,2147485581,0,0,0,0,0,0,0,0,0,0,0,0,2399,2400,0,0,0,0,0,0,
0,0,0,0,1935,1936,1937,1938,2147485598,2147485597,0,0,0,0,0,0,0,0,0,0,0,0,0,0,0,0,0,0,0,0,
1901,0,0,0,2375,2376,1953,1954,0,0,0,0,0,0,0,0,0,0,0,0,0,0,0,0,0,0,0,0,0,0,
0,0,0,0,2399,2400,0,0,0,0,0,0,0,0,0,0,0,0,0,0,0,0,0,0,0,0,0,0,0,0,
0,0,0,0,0,0,0,0,0,0,0,0,0,0,0,2375,2376,0,0,0,0,0,0,0,0,0,0,0,0,0,
0,0,0,0,0,0,0,0,0,0,0,0,0,0,0,2399,2400,0,0,0,0,0,0,0,0,0,0,0,0,0,
0,0,0,0,0,0,0,0,0,0,0,0,0,0,0,0,0,0,0,0,0,0,0,0,0,0,0,0,0,0,
0,2375,2376,0,0,0,0,0,0,0,0,2655,2656,0,0,0,0,0,0,0,0,0,0,0,0,0,0,0,0,0,
0,2399,2400,0,0,0,0,0,0,0,2657,2679,2680,0,0,0,0,0,0,0,0,0,0,0,0,0,0,0,0,0,
2655,2656,2658,0,0,0,0,0,0,2421,2422,2423,2424,0,0,0,0,0,0,0,0,0,0,0,0,0,0,0,0,0,
2679,2680,0,0,0,0,0,0,0,2445,2446,2447,2448,0,0,0,0,0,0,0,0,0,0,0,0,0,0,0,0,29,
0,0,0,0,0,0,0,0,0,2469,2470,2471,2472,0,0,0,0,0,0,0,0,0,0,0,0,0,0,0,2375,2376,
0,0,0,0,0,0,0,0,0,0,0,0,0,0,0,0,0,0,0,0,0,0,0,0,0,0,0,0,2399,2400,
0,0,0,0,0,0,0,0,0,0,0,0,0,0,0,0,0,0,0,0,0,0,0,0,0,0,0,0,0,0
</data>
 </layer>
 <layer id="6" name="back3" width="30" height="20">
  <data encoding="csv">
0,0,0,0,0,0,0,0,0,0,0,0,0,0,0,0,0,0,0,0,0,0,0,0,0,0,0,0,0,0,
0,0,0,0,0,0,0,0,0,0,0,0,0,0,0,0,0,0,0,0,0,0,0,0,0,0,0,0,0,0,
0,0,0,0,0,0,0,0,0,0,0,0,0,0,0,0,0,0,0,0,0,0,0,0,0,0,0,0,0,0,
0,0,0,0,0,0,0,0,0,0,0,0,0,0,0,0,0,0,0,0,0,0,0,0,0,0,0,0,0,0,
0,0,0,0,0,0,0,0,0,0,0,0,0,0,0,0,0,0,0,0,0,0,0,0,0,0,0,0,0,0,
0,0,0,0,0,0,0,0,0,0,1928,1931,1931,1931,1932,1930,0,0,0,0,0,1906,0,0,0,0,0,0,0,0,
0,0,0,0,0,0,0,0,0,0,1944,1947,1947,1947,1948,1946,0,0,0,0,0,0,0,0,0,0,0,0,0,0,
0,0,0,0,0,0,0,0,0,0,0,0,0,0,0,0,0,0,0,0,0,0,0,0,0,0,0,0,0,0,
0,0,0,0,0,0,0,0,0,0,0,0,0,0,0,0,0,0,0,0,0,0,0,0,0,0,0,0,0,0,
0,0,0,0,0,0,0,0,0,0,0,0,0,0,0,0,0,0,0,0,0,0,0,0,0,0,0,0,0,0,
0,0,0,0,0,0,0,0,0,0,0,0,0,0,0,0,0,0,0,0,0,0,0,0,0,0,0,0,0,0,
0,0,0,0,0,0,0,0,0,0,0,0,0,0,0,0,0,0,0,0,0,0,0,0,0,0,0,0,0,0,
0,0,0,0,0,0,0,0,0,0,0,0,0,0,0,0,0,0,0,0,0,0,0,0,0,0,0,0,0,0,
0,0,0,0,0,0,0,0,0,0,0,0,0,0,0,0,0,0,0,0,0,0,0,0,0,0,0,0,0,0,
0,0,0,0,0,0,0,0,0,0,0,0,0,0,0,0,0,0,0,0,0,0,0,0,0,0,0,0,0,0,
0,0,0,0,0,0,0,0,0,0,0,0,0,0,0,0,0,0,0,0,0,0,0,0,0,0,0,0,0,0,
0,0,0,0,0,0,0,0,0,0,0,0,0,0,0,0,0,0,0,0,0,0,0,0,0,0,0,0,0,0,
0,0,0,0,0,0,0,0,0,0,0,0,0,0,0,0,0,0,0,0,0,0,0,0,0,0,0,0,0,0,
0,0,0,0,0,0,0,0,0,0,0,0,0,0,0,0,0,0,0,0,0,0,0,0,0,0,0,0,0,0,
0,0,0,0,0,0,0,0,0,0,0,0,0,0,0,0,0,0,0,0,0,0,0,0,0,0,0,0,0,0
</data>
 </layer>
</map>
